packages/foundations/assets/icons/functional/images/business & payment/shopping_cart_32.svg

<svg width="32" height="32" viewBox="0 0 32 32" fill="none" xmlns="http://www.w3.org/2000/svg">
<g clip-path="url(#clip0_184_135)">
<path fill-rule="evenodd" clip-rule="evenodd" d="M23.3687 29.125C24.2767 29.125 25.0107 28.391 25.0107 27.517C25.011 27.3013 24.9687 27.0877 24.8863 26.8883C24.8039 26.689 24.6829 26.5079 24.5304 26.3553C24.3779 26.2028 24.1968 26.0819 23.9974 25.9995C23.7981 25.917 23.5844 25.8747 23.3687 25.875C22.4587 25.875 21.7607 26.609 21.7607 27.517C21.7607 28.391 22.4597 29.125 23.3687 29.125ZM11.8687 29.125C12.7767 29.125 13.5107 28.391 13.5107 27.517C13.511 27.3013 13.4687 27.0877 13.3863 26.8883C13.3039 26.689 13.1829 26.5079 13.0304 26.3553C12.8779 26.2028 12.6968 26.0819 12.4974 25.9995C12.2981 25.917 12.0844 25.8747 11.8687 25.875C10.9587 25.875 10.2607 26.609 10.2607 27.517C10.2607 28.391 10.9597 29.125 11.8687 29.125ZM5.19274 2.875C6.57174 2.875 7.77374 3.837 8.03074 5.185L8.18974 5.89H27.2397C28.5227 5.89 29.4527 7.109 29.1967 8.295L27.4647 15.089C27.2077 16.276 26.2457 17.174 25.0587 17.399L10.8837 18.905L11.3677 21.145C11.4637 21.593 11.8807 21.882 12.3297 21.882H24.2577C24.5209 21.8836 24.7728 21.9888 24.9589 22.1749C25.1449 22.3609 25.2502 22.6129 25.2517 22.876C25.2504 23.1393 25.1453 23.3915 24.9592 23.5778C24.7731 23.7641 24.5211 23.8694 24.2577 23.871H12.3447C10.8047 23.871 9.68274 22.908 9.42674 21.561L6.18674 5.826C6.03074 5.152 5.60974 4.863 5.19274 4.863H3.75474C3.4916 4.86143 3.23969 4.7562 3.05362 4.57012C2.86755 4.38405 2.76232 4.13214 2.76074 3.869C2.76232 3.60586 2.86755 3.35395 3.05362 3.16788C3.23969 2.9818 3.4916 2.87657 3.75474 2.875H5.19274ZM27.2397 7.878H8.59274L10.4527 16.918L24.8027 15.41C25.1557 15.314 25.4127 15.025 25.5077 14.64L27.2397 7.878Z" fill="#1A1C1F"/>
</g>
<defs>
<clipPath id="clip0_184_135">
<rect width="32" height="32" fill="white"/>
</clipPath>
</defs>
</svg>

<svg xmlns="http://www.w3.org/2000/svg" width="32" height="32" fill="none"><g clip-path="url(#a)"><path fill="#1A1C1F" fill-rule="evenodd" d="M23.369 29.125c.908 0 1.642-.734 1.642-1.608a1.64 1.64 0 0 0-1.642-1.642c-.91 0-1.608.734-1.608 1.642 0 .874.699 1.608 1.608 1.608m-11.5 0c.908 0 1.642-.734 1.642-1.608a1.64 1.64 0 0 0-1.642-1.642c-.91 0-1.608.734-1.608 1.642 0 .874.699 1.608 1.608 1.608M5.193 2.875c1.379 0 2.58.962 2.838 2.31l.159.705h19.05c1.283 0 2.213 1.219 1.957 2.405l-1.732 6.794c-.257 1.187-1.22 2.085-2.406 2.31l-14.175 1.506.484 2.24c.096.448.513.737.962.737h11.928a1 1 0 0 1 .994.994 1 1 0 0 1-.994.995H12.345c-1.54 0-2.662-.963-2.918-2.31L6.187 5.826c-.156-.674-.577-.963-.994-.963H3.755a1 1 0 0 1-.994-.994 1 1 0 0 1 .994-.994zM27.24 7.878H8.593l1.86 9.04 14.35-1.508c.353-.096.61-.385.705-.77z" clip-rule="evenodd"/></g><defs><clipPath id="a"><path fill="#fff" d="M0 0h32v32H0z"/></clipPath></defs></svg>
